;FLAVOR:Marlin
;TIME:12077
;Filament used: 15.0303m
;Layer height: 0.2
;MINX:85.25
;MINY:85.25
;MINZ:0.2
;MAXX:134.75
;MAXY:134.75
;MAXZ:50
;TARGET_MACHINE.NAME:Creality Ender-3 Pro
;Generated with Cura_SteamEngine 5.7.0
M82 ;absolute extrusion mode
; Ender 3 Custom Start G-code
G92 E0 ; Reset Extruder
G28 ; Home all axes
G1 Z5.0 F3000 ; Move Z Axis up a bit during heating to not damage bed
M104 S175.0 ; Start heating up the nozzle most of the way
M190 S55.0 ; Start heating the bed, wait until target temperature reached
M109 S200.0 ; Finish heating the nozzle
G1 Z2.0 F3000 ; Move Z Axis up little to prevent scratching of Heat Bed
G1 X0.1 Y20 Z0.3 F5000.0 ; Move to start position
G1 X0.1 Y200.0 Z0.3 F1500.0 E15 ; Draw the first line
G1 X0.4 Y200.0 Z0.3 F5000.0 ; Move to side a little
G1 X0.4 Y20 Z0.3 F1500.0 E30 ; Draw the second line
G92 E0 ; Reset Extruder
G1 Z2.0 F3000 ; Move Z Axis up little to prevent scratching of Heat Bed
G1 X5 Y20 Z0.3 F5000.0 ; Move over to prevent blob squish
G92 E0
G92 E0
G1 F1500 E-6.5
;LAYER_COUNT:250
;LAYER:0
M107
;MESH:cube binary stl.stl
G0 F6000 X134.25 Y134.25 Z0.2
;TYPE:WALL-INNER
G1 F1500 E0
G1 F1200 X134.25 Y85.75 E2.0164
G1 X85.75 Y85.75 E4.03279
G1 X85.75 Y134.25 E6.04919
G1 X134.25 Y134.25 E8.06558
G0 F6000 X134.75 Y134.75
;TYPE:WALL-OUTER
G1 F1200 X134.75 Y85.25 E10.12355
G1 X85.25 Y85.25 E12.18152
G1 X85.25 Y134.75 E14.2395
G1 X134.75 Y134.75 E16.29747
G0 F6000 X134.08 Y134.08
G0 X134.1 Y133.798
G0 X133.798 Y133.798
;TYPE:SKIN
G1 F1200 X86.198 Y133.798 E18.27644
G1 X86.198 Y86.198 E20.25542
G1 X133.798 Y86.198 E22.2344
G1 X133.798 Y133.798 E24.21338
G1 F1500 E17.71338
G0 F6000 X134.1 Y133.798
G0 X134.1 Y86.879
G0 X133.548 Y86.879
G1 F1500 E24.21338
G1 F1200 X133.117 Y86.448 E24.23872
G0 F6000 X132.41 Y86.448
G1 F1200 X133.548 Y87.586 E24.30563
G0 F6000 X133.548 Y88.294
G1 F1200 X131.703 Y86.448 E24.41414
G0 F6000 X130.996 Y86.448
G1 F1200 X133.548 Y89.001 E24.56422
G0 F6000 X133.548 Y89.708
G1 F1200 X130.289 Y86.448 E24.75586
G0 F6000 X129.582 Y86.448
G1 F1200 X133.548 Y90.415 E24.98908
G0 F6000 X133.548 Y91.122
G1 F1200 X128.874 Y86.448 E25.26389
G0 F6000 X128.167 Y86.448
G1 F1200 X133.548 Y91.829 E25.58027
G0 F6000 X133.548 Y92.536
G1 F1200 X127.46 Y86.448 E25.93822
G0 F6000 X126.753 Y86.448
G1 F1200 X133.548 Y93.243 E26.33774
G0 F6000 X133.548 Y93.95
G1 F1200 X126.046 Y86.448 E26.77883
G0 F6000 X125.339 Y86.448
G1 F1200 X133.548 Y94.658 E27.26152
G0 F6000 X133.548 Y95.365
G1 F1200 X124.632 Y86.448 E27.78577
G0 F6000 X123.925 Y86.448
G1 F1200 X133.548 Y96.072 E28.3516
G0 F6000 X133.548 Y96.779
G1 F1200 X123.218 Y86.448 E28.95899
G0 F6000 X122.51 Y86.448
G1 F1200 X133.548 Y97.486 E29.60799
G0 F6000 X133.548 Y98.193
G1 F1200 X121.803 Y86.448 E30.29855
G0 F6000 X121.096 Y86.448
G1 F1200 X133.548 Y98.9 E31.03068
G0 F6000 X133.548 Y99.607
G1 F1200 X120.389 Y86.448 E31.80438
G0 F6000 X119.682 Y86.448
G1 F1200 X133.548 Y100.314 E32.61964
G0 F6000 X133.548 Y101.022
G1 F1200 X118.975 Y86.448 E33.47651
G0 F6000 X118.268 Y86.448
G1 F1200 X133.548 Y101.729 E34.37494
G0 F6000 X133.548 Y102.436
G1 F1200 X117.561 Y86.448 E35.31495
G0 F6000 X116.854 Y86.448
G1 F1200 X133.548 Y103.143 E36.29652
G0 F6000 X133.548 Y103.85
G1 F1200 X116.147 Y86.448 E37.31966
G0 F6000 X115.439 Y86.448
G1 F1200 X133.548 Y104.557 E38.3844
G0 F6000 X133.548 Y105.264
G1 F1200 X114.732 Y86.448 E39.49071
G0 F6000 X114.025 Y86.448
G1 F1200 X133.548 Y105.971 E40.63859
G0 F6000 X133.548 Y106.678
G1 F1200 X113.318 Y86.448 E41.82803
G0 F6000 X112.611 Y86.448
G1 F1200 X133.548 Y107.385 E43.05905
G0 F6000 X133.548 Y108.093
G1 F1200 X111.904 Y86.448 E44.33166
G0 F6000 X111.197 Y86.448
G1 F1200 X133.548 Y108.8 E45.64585
G0 F6000 X133.548 Y109.507
G1 F1200 X110.49 Y86.448 E47.0016
G0 F6000 X109.783 Y86.448
G1 F1200 X133.548 Y110.214 E48.39892
G0 F6000 X133.548 Y110.921
G1 F1200 X109.075 Y86.448 E49.83784
G0 F6000 X108.368 Y86.448
G1 F1200 X133.548 Y111.628 E51.31832
G0 F6000 X133.548 Y112.335
G1 F1200 X107.661 Y86.448 E52.84038
G0 F6000 X106.954 Y86.448
G1 F1200 X133.548 Y113.042 E54.40401
G0 F6000 X133.548 Y113.749
G1 F1200 X106.247 Y86.448 E56.0092
G0 F6000 X105.54 Y86.448
G1 F1200 X133.548 Y114.457 E57.65599
G0 F6000 X133.548 Y115.164
G1 F1200 X104.833 Y86.448 E59.34435
G0 F6000 X104.126 Y86.448
G1 F1200 X133.548 Y115.871 E61.07428
G0 F6000 X133.548 Y116.578
G1 F1200 X103.419 Y86.448 E62.84578
G0 F6000 X102.712 Y86.448
G1 F1200 X133.548 Y117.285 E64.65885
G0 F6000 X133.548 Y117.992
G1 F1200 X102.004 Y86.448 E66.51352
G0 F6000 X101.297 Y86.448
G1 F1200 X133.548 Y118.699 E68.40975
G0 F6000 X133.548 Y119.406
G1 F1200 X100.59 Y86.448 E70.34756
G0 F6000 X99.883 Y86.448
G1 F1200 X133.548 Y120.113 E72.32693
G0 F6000 X133.548 Y120.821
G1 F1200 X99.176 Y86.448 E74.3479
G0 F6000 X98.469 Y86.448
G1 F1200 X133.548 Y121.528 E76.41044
G0 F6000 X133.548 Y122.235
G1 F1200 X97.762 Y86.448 E78.51455
G0 F6000 X97.055 Y86.448
G1 F1200 X133.548 Y122.942 E80.66023
G0 F6000 X133.548 Y123.649
G1 F1200 X96.348 Y86.448 E82.84747
G0 F6000 X95.64 Y86.448
G1 F1200 X133.548 Y124.356 E85.07632
G0 F6000 X133.548 Y125.063
G1 F1200 X94.933 Y86.448 E87.34673
G0 F6000 X94.226 Y86.448
G1 F1200 X133.548 Y125.77 E89.65872
G0 F6000 X133.548 Y126.477
G1 F1200 X93.519 Y86.448 E92.01227
G0 F6000 X92.812 Y86.448
G1 F1200 X133.548 Y127.184 E94.40739
G0 F6000 X133.548 Y127.892
G1 F1200 X92.105 Y86.448 E96.84411
G0 F6000 X91.398 Y86.448
G1 F1200 X133.548 Y128.599 E99.3224
G0 F6000 X133.548 Y129.306
G1 F1200 X90.691 Y86.448 E101.84225
G0 F6000 X89.984 Y86.448
G1 F1200 X133.548 Y130.013 E104.40368
G0 F6000 X133.548 Y130.72
G1 F1200 X89.276 Y86.448 E107.0067
G0 F6000 X88.569 Y86.448
G1 F1200 X133.548 Y131.427 E109.65129
G0 F6000 X133.548 Y132.134
G1 F1200 X87.862 Y86.448 E112.33746
G0 F6000 X87.155 Y86.448
G1 F1200 X133.548 Y132.841 E115.06519
G0 F6000 X133.548 Y133.548
G1 F1200 X86.448 Y86.448 E117.83449
G0 F6000 X86.448 Y87.155
G1 F1200 X132.841 Y133.548 E120.56222
G0 F6000 X132.134 Y133.548
G1 F1200 X86.448 Y87.862 E123.24838
G0 F6000 X86.448 Y88.569
G1 F1200 X131.426 Y133.548 E125.89294
G0 F6000 X130.719 Y133.548
G1 F1200 X86.448 Y89.276 E128.49594
G0 F6000 X86.448 Y89.984
G1 F1200 X130.012 Y133.548 E131.05733
G0 F6000 X129.305 Y133.548
G1 F1200 X86.448 Y90.691 E133.57716
G0 F6000 X86.448 Y91.398
G1 F1200 X128.598 Y133.548 E136.05542
G0 F6000 X127.891 Y133.548
G1 F1200 X86.448 Y92.105 E138.49211
G0 F6000 X86.448 Y92.812
G1 F1200 X127.184 Y133.548 E140.88723
G0 F6000 X126.477 Y133.548
G1 F1200 X86.448 Y93.519 E143.24078
G0 F6000 X86.448 Y94.226
G1 F1200 X125.77 Y133.548 E145.55276
G0 F6000 X125.062 Y133.548
G1 F1200 X86.448 Y94.933 E147.82315
G0 F6000 X86.448 Y95.64
G1 F1200 X124.355 Y133.548 E150.05196
G0 F6000 X123.648 Y133.548
G1 F1200 X86.448 Y96.348 E152.23918
G0 F6000 X86.448 Y97.055
G1 F1200 X122.941 Y133.548 E154.38483
G0 F6000 X122.234 Y133.548
G1 F1200 X86.448 Y97.762 E156.48891
G0 F6000 X86.448 Y98.469
G1 F1200 X121.527 Y133.548 E158.55142
G0 F6000 X120.82 Y133.548
G1 F1200 X86.448 Y99.176 E160.57236
G0 F6000 X86.448 Y99.883
G1 F1200 X120.113 Y133.548 E162.55174
G0 F6000 X119.406 Y133.548
G1 F1200 X86.448 Y100.59 E164.48954
G0 F6000 X86.448 Y101.297
G1 F1200 X118.698 Y133.548 E166.38575
G0 F6000 X117.991 Y133.548
G1 F1200 X86.448 Y102.004 E168.24038
G0 F6000 X86.448 Y102.712
G1 F1200 X117.284 Y133.548 E170.05342
G0 F6000 X116.577 Y133.548
G1 F1200 X86.448 Y103.419 E171.82489
G0 F6000 X86.448 Y104.126
G1 F1200 X115.87 Y133.548 E173.55479
G0 F6000 X115.163 Y133.548
G1 F1200 X86.448 Y104.833 E175.24312
G0 F6000 X86.448 Y105.54
G1 F1200 X114.456 Y133.548 E176.88989
G0 F6000 X113.749 Y133.548
G1 F1200 X86.448 Y106.247 E178.49508
G0 F6000 X86.448 Y106.954
G1 F1200 X113.042 Y133.548 E180.05871
G0 F6000 X112.335 Y133.548
G1 F1200 X86.448 Y107.661 E181.58076
G0 F6000 X86.448 Y108.368
G1 F1200 X111.627 Y133.548 E183.06122
G0 F6000 X110.92 Y133.548
G1 F1200 X86.448 Y109.075 E184.50011
G0 F6000 X86.448 Y109.783
G1 F1200 X110.213 Y133.548 E185.8974
G0 F6000 X109.506 Y133.548
G1 F1200 X86.448 Y110.49 E187.25312
G0 F6000 X86.448 Y111.197
G1 F1200 X108.799 Y133.548 E188.56728
G0 F6000 X108.092 Y133.548
G1 F1200 X86.448 Y111.904 E189.83986
G0 F6000 X86.448 Y112.611
G1 F1200 X107.385 Y133.548 E191.07088
G0 F6000 X106.678 Y133.548
G1 F1200 X86.448 Y113.318 E192.26032
G0 F6000 X86.448 Y114.025
G1 F1200 X105.971 Y133.548 E193.4082
G0 F6000 X105.263 Y133.548
G1 F1200 X86.448 Y114.732 E194.51448
G0 F6000 X86.448 Y115.439
G1 F1200 X104.556 Y133.548 E195.57919
G0 F6000 X103.849 Y133.548
G1 F1200 X86.448 Y116.147 E196.6023
G0 F6000 X86.448 Y116.854
G1 F1200 X103.142 Y133.548 E197.58384
G0 F6000 X102.435 Y133.548
G1 F1200 X86.448 Y117.561 E198.52382
G0 F6000 X86.448 Y118.268
G1 F1200 X101.728 Y133.548 E199.42222
G0 F6000 X101.021 Y133.548
G1 F1200 X86.448 Y118.975 E200.27906
G0 F6000 X86.448 Y119.682
G1 F1200 X100.314 Y133.548 E201.09433
G0 F6000 X99.607 Y133.548
G1 F1200 X86.448 Y120.389 E201.86803
G0 F6000 X86.448 Y121.096
G1 F1200 X98.899 Y133.548 E202.60013
G0 F6000 X98.192 Y133.548
G1 F1200 X86.448 Y121.803 E203.29066
G0 F6000 X86.448 Y122.51
G1 F1200 X97.485 Y133.548 E203.93962
G0 F6000 X96.778 Y133.548
G1 F1200 X86.448 Y123.218 E204.54699
G0 F6000 X86.448 Y123.925
G1 F1200 X96.071 Y133.548 E205.11278
G0 F6000 X95.364 Y133.548
G1 F1200 X86.448 Y124.632 E205.63701
G0 F6000 X86.448 Y125.339
G1 F1200 X94.657 Y133.548 E206.11967
G0 F6000 X93.95 Y133.548
G1 F1200 X86.448 Y126.046 E206.56076
G0 F6000 X86.448 Y126.753
G1 F1200 X93.243 Y133.548 E206.96028
G0 F6000 X92.536 Y133.548
G1 F1200 X86.448 Y127.46 E207.31823
G0 F6000 X86.448 Y128.167
G1 F1200 X91.828 Y133.548 E207.63458
G0 F6000 X91.121 Y133.548
G1 F1200 X86.448 Y128.874 E207.90936
G0 F6000 X86.448 Y129.582
G1 F1200 X90.414 Y133.548 E208.14255
G0 F6000 X89.707 Y133.548
G1 F1200 X86.448 Y130.289 E208.33417
G0 F6000 X86.448 Y130.996
G1 F1200 X89 Y133.548 E208.48421
G0 F6000 X88.293 Y133.548
G1 F1200 X86.448 Y131.703 E208.59269
G0 F6000 X86.448 Y132.41
G1 F1200 X87.586 Y133.548 E208.6596
G0 F6000 X86.879 Y133.548
G1 F1200 X86.448 Y133.117 E208.68494
M104 S200
G1 F1500 E202.18494
;MESH:NONMESH
G0 F300 X86.448 Y133.117 Z0.4
G0 F6000 X85.9 Y133.117
G0 X85.972 Y134.028
G0 X134.08 Y134.08
G0 X134.25 Y134.25
;TIME_ELAPSED:268.630999
;LAYER:1
M106 S85
;TYPE:WALL-INNER
;MESH:cube binary stl.stl
G1 F1500 E208.68494
G1 F1350 X134.25 Y85.75 E210.70134
G1 X85.75 Y85.75 E212.71773
G1 X85.75 Y134.25 E214.73413
G1 X134.25 Y134.25 E216.75053
G0 F7500 X134.75 Y134.75
;TYPE:WALL-OUTER
G1 F1350 X134.75 Y85.25 E218.8085
G1 X85.25 Y85.25 E220.86647
G1 X85.25 Y134.75 E222.92444
G1 X134.75 Y134.75 E224.98241
G0 F7500 X134.08 Y134.08
G0 X134.1 Y133.798
G0 X133.798 Y133.798
;TYPE:SKIN
G1 F1350 X86.198 Y133.798 E226.96139
G1 X86.198 Y86.198 E228.94037
G1 X133.798 Y86.198 E230.91934
G1 X133.798 Y133.798 E232.89832
G0 F7500 X133.548 Y133.032
G1 F1350 X133.031 Y133.548 E232.92869
G0 F7500 X132.324 Y133.548
G1 F1350 X133.548 Y132.324 E233.00066
G0 F7500 X133.548 Y131.617
G1 F1350 X131.617 Y133.548 E233.11419
G0 F7500 X130.91 Y133.548
G1 F1350 X133.548 Y130.91 E233.2693
G0 F7500 X133.548 Y130.203
G1 F1350 X130.202 Y133.548 E233.466
G0 F7500 X129.495 Y133.548
G1 F1350 X133.548 Y129.496 E233.70427
G0 F7500 X133.548 Y128.789
G1 F1350 X128.788 Y133.548 E233.98411
G0 F7500 X128.081 Y133.548
G1 F1350 X133.548 Y128.082 E234.30552
G0 F7500 X133.548 Y127.375
G1 F1350 X127.374 Y133.548 E234.6685
G0 F7500 X126.667 Y133.548
G1 F1350 X133.548 Y126.668 E235.07304
G0 F7500 X133.548 Y125.96
G1 F1350 X125.96 Y133.548 E235.51919
G0 F7500 X125.253 Y133.548
G1 F1350 X133.548 Y125.253 E236.0069
G0 F7500 X133.548 Y124.546
G1 F1350 X124.546 Y133.548 E236.53619
G0 F7500 X123.838 Y133.548
G1 F1350 X133.548 Y123.839 E237.10707
G0 F7500 X133.548 Y123.132
G1 F1350 X123.131 Y133.548 E237.71952
G0 F7500 X122.424 Y133.548
G1 F1350 X133.548 Y122.425 E238.37354
G0 F7500 X133.548 Y121.718
G1 F1350 X121.717 Y133.548 E239.06913
G0 F7500 X121.01 Y133.548
G1 F1350 X133.548 Y121.011 E239.80628
G0 F7500 X133.548 Y120.304
G1 F1350 X120.303 Y133.548 E240.58501
G0 F7500 X119.596 Y133.548
G1 F1350 X133.548 Y119.597 E241.4053
G0 F7500 X133.548 Y118.889
G1 F1350 X118.889 Y133.548 E242.2672
G0 F7500 X118.182 Y133.548
G1 F1350 X133.548 Y118.182 E243.17066
G0 F7500 X133.548 Y117.475
G1 F1350 X117.474 Y133.548 E244.11572
G0 F7500 X116.767 Y133.548
G1 F1350 X133.548 Y116.768 E245.10235
G0 F7500 X133.548 Y116.061
G1 F1350 X116.06 Y133.548 E246.13055
G0 F7500 X115.353 Y133.548
G1 F1350 X133.548 Y115.354 E247.20031
G0 F7500 X133.548 Y114.647
G1 F1350 X114.646 Y133.548 E248.31165
G0 F7500 X113.939 Y133.548
G1 F1350 X133.548 Y113.94 E249.46455
G0 F7500 X133.548 Y113.233
G1 F1350 X113.232 Y133.548 E250.65903
G0 F7500 X112.525 Y133.548
G1 F1350 X133.548 Y112.525 E251.8951
G0 F7500 X133.548 Y111.818
G1 F1350 X111.818 Y133.548 E253.17274
G0 F7500 X111.111 Y133.548
G1 F1350 X133.548 Y111.111 E254.49195
G0 F7500 X133.548 Y110.404
G1 F1350 X110.403 Y133.548 E255.85276
G0 F7500 X109.696 Y133.548
G1 F1350 X133.548 Y109.697 E257.25513
G0 F7500 X133.548 Y108.99
G1 F1350 X108.989 Y133.548 E258.69908
G0 F7500 X108.282 Y133.548
G1 F1350 X133.548 Y108.283 E260.18459
G0 F7500 X133.548 Y107.576
G1 F1350 X107.575 Y133.548 E261.71168
G0 F7500 X106.868 Y133.548
G1 F1350 X133.548 Y106.869 E263.28033
G0 F7500 X133.548 Y106.161
G1 F1350 X106.161 Y133.548 E264.89058
G0 F7500 X105.454 Y133.548
G1 F1350 X133.548 Y105.454 E266.5424
G0 F7500 X133.548 Y104.747
G1 F1350 X104.747 Y133.548 E268.23579
G0 F7500 X104.039 Y133.548
G1 F1350 X133.548 Y104.04 E269.97077
G0 F7500 X133.548 Y103.333
G1 F1350 X103.332 Y133.548 E271.74733
G0 F7500 X102.625 Y133.548
G1 F1350 X133.548 Y102.626 E273.56546
G0 F7500 X133.548 Y101.919
G1 F1350 X101.918 Y133.548 E275.42515
G0 F7500 X101.211 Y133.548
G1 F1350 X133.548 Y101.212 E277.32641
G0 F7500 X133.548 Y100.505
G1 F1350 X100.504 Y133.548 E279.26924
G0 F7500 X99.797 Y133.548
G1 F1350 X133.548 Y99.798 E281.25364
G0 F7500 X133.548 Y99.09
G1 F1350 X99.09 Y133.548 E283.27964
G0 F7500 X98.383 Y133.548
G1 F1350 X133.548 Y98.383 E285.34721
G0 F7500 X133.548 Y97.676
G1 F1350 X97.675 Y133.548 E287.45637
G0 F7500 X96.968 Y133.548
G1 F1350 X133.548 Y96.969 E289.60711
G0 F7500 X133.548 Y96.262
G1 F1350 X96.261 Y133.548 E291.79941
G0 F7500 X95.554 Y133.548
G1 F1350 X133.548 Y95.555 E294.03328
G0 F7500 X133.548 Y94.848
G1 F1350 X94.847 Y133.548 E296.30872
G0 F7500 X94.14 Y133.548
G1 F1350 X133.548 Y94.141 E298.62573
G0 F7500 X133.548 Y93.434
G1 F1350 X93.433 Y133.548 E300.98431
G0 F7500 X92.726 Y133.548
G1 F1350 X133.548 Y92.726 E303.38449
G0 F7500 X133.548 Y92.019
G1 F1350 X92.019 Y133.548 E305.82624
G0 F7500 X91.312 Y133.548
G1 F1350 X133.548 Y91.312 E308.30955
G0 F7500 X133.548 Y90.605
G1 F1350 X90.604 Y133.548 E310.83446
G0 F7500 X89.897 Y133.548
G1 F1350 X133.548 Y89.898 E313.40095
G0 F7500 X133.548 Y89.191
G1 F1350 X89.19 Y133.548 E316.009
G0 F7500 X88.483 Y133.548
G1 F1350 X133.548 Y88.484 E318.65862
G0 F7500 X133.548 Y87.777
G1 F1350 X87.776 Y133.548 E321.34981
G0 F7500 X87.069 Y133.548
G1 F1350 X133.548 Y87.07 E324.08256
G0 F7500 X133.462 Y86.448
G1 F1350 X86.448 Y133.462 E326.84681
G0 F7500 X86.448 Y132.755
G1 F1350 X132.755 Y86.448 E329.56948
G0 F7500 X132.048 Y86.448
G1 F1350 X86.448 Y132.048 E332.25059
G0 F7500 X86.448 Y131.341
G1 F1350 X131.341 Y86.448 E334.89012
G0 F7500 X130.634 Y86.448
G1 F1350 X86.448 Y130.634 E337.48809
G0 F7500 X86.448 Y129.927
G1 F1350 X129.927 Y86.448 E340.04449
G0 F7500 X129.22 Y86.448
G1 F1350 X86.448 Y129.22 E342.55932
G0 F7500 X86.448 Y128.512
