; HEADER_BLOCK_START
; generated by OrcaSlicer 2.3.1 on 2026-02-13 at 13:14:46
; total layer number: 200
; filament_density: 1.24,1.24
; filament_diameter: 1.75,1.75
; max_z_height: 100.00
; HEADER_BLOCK_END

; THUMBNAIL_BLOCK_START

;
; THUMBNAIL_BLOCK_END

; THUMBNAIL_BLOCK_START

;
; THUMBNAIL_BLOCK_END

; external perimeters extrusion width = 5.00mm
; perimeters extrusion width = 5.00mm
; infill extrusion width = 5.00mm
; solid infill extrusion width = 5.00mm
; top infill extrusion width = 5.00mm
; first layer extrusion width = 5.00mm

; EXECUTABLE_BLOCK_START
M73 P0 R85
M201 X1000 Y1000 Z1000 E1000
M203 X50 Y50 Z50 E100
M204 P1000 R1000 T1000
M205 X10.00 Y10.00 Z2.00 E2.50 ; sets the jerk limits, mm/sec
;TYPE:Custom
M220 S100 ;Reset feed rate 
M221 S100 ;Reset flow rate 

M140 S55 ;Set final bed temp
G28 ;Home 
G92 E0 ;Reset extruder 
G1 Z2.0 F3000 ;Move Z Axis up 
G1 X10.1 Y20 Z0.28 F5000.0 ;Move to start position 
M190 S55 ;Wait for bed temp to stabilize
M109 S220 ;Wait for nozzle temp to stabilize
G1 X10.1 Y145.0 Z0.28 F1500.0 E15 ;Draw the first line 
G1 X10.4 Y145.0 Z0.28 F5000.0 ;Move to side a little 
G1 X10.4 Y20 Z0.28 F1500.0 E30 ;Draw the second line 
G92 E0 ;Reset extruder 
G1 E-1.0000 F1800 ;Retract a bit 
G1 Z2.0 F3000 ;Move Z Axis up 
G1 E0.0000 F1800
G90
G21
M83 ; use relative distances for extrusion
; filament start gcode
M106 P3 S255


T0
M106 S0
;LAYER_CHANGE
;Z:0.5
;HEIGHT:0.5
;BEFORE_LAYER_CHANGE
;0.5
G92 E0

G1 E-.8 F1800
;_SET_FAN_SPEED_CHANGING_LAYER
; printing object Cube id:0 copy 0
G1 X42.35 Y42.35 F3000
G1 Z.5
G1 Z.5
G1 E.8 F2400
;TYPE:Inner wall
;WIDTH:5
G1 F3000
G1 X-42.35 Y42.35 E86.14617
G1 X-42.35 Y-42.35 E86.14617
G1 X42.35 Y-42.35 E86.14617
G1 X42.35 Y42.25 E86.04446
G1 E-.56 F1800
;WIPE_START
G1 F3000
G1 X41.35 Y42.251 E-.24
;WIPE_END
G1 X47.35 Y47.35
G1 E.8 F2400
;TYPE:Outer wall
G1 F3000
G1 X-47.35 Y47.35 E96.31691
G1 X-47.35 Y-47.35 E96.31691
G1 X47.35 Y-47.35 E96.31691
G1 X47.35 Y47.25 E96.2152
G1 E-.56 F1800
;WIPE_START
G1 F3000
G1 X46.35 Y47.251 E-.24
;WIPE_END
G1 X40.882 Y-30.643
G1 E.8 F2400
;TYPE:Bottom surface
;WIDTH:5.16488
G1 F3000
G1 X32.844 Y-38.68 E11.95088
G1 X25.692 Y-38.68 E7.51976
G1 X38.68 Y-25.692 E19.31185
G1 X38.68 Y-18.539 E7.51976
G1 X18.539 Y-38.68 E29.94639
G1 X11.387 Y-38.68 E7.51976
G1 X38.68 Y-11.387 E40.58093
G1 X38.68 Y-4.234 E7.51976
G1 X4.234 Y-38.68 E51.21546
G1 X-2.918 Y-38.68 E7.51975
G1 X38.68 Y2.918 E61.85
G1 X38.68 Y10.071 E7.51976
G1 X-10.071 Y-38.68 E72.48454
G1 X-17.223 Y-38.68 E7.51976
G1 X38.68 Y17.223 E83.11908
G1 X38.68 Y24.376 E7.51976
G1 X-24.376 Y-38.68 E93.75362
G1 X-31.528 Y-38.68 E7.51976
G1 X38.68 Y31.528 E104.38816
G1 X38.68 Y38.68 E7.51968
G1 X-38.68 Y-38.68 E115.0225
G1 X-38.68 Y-31.528 E7.51976
G1 X31.528 Y38.68 E104.38796
G1 X24.375 Y38.68 E7.51976
G1 X-38.68 Y-24.375 E93.75342
G1 X-38.68 Y-17.223 E7.51976
G1 X17.223 Y38.68 E83.11888
G1 X10.07 Y38.68 E7.51976
G1 X-38.68 Y-10.07 E72.48434
G1 X-38.68 Y-2.918 E7.51976
M73 P0 R84
G1 X2.918 Y38.68 E61.8498
G1 X-4.235 Y38.68 E7.51976
M73 P1 R84
G1 X-38.68 Y4.235 E51.21526
G1 X-38.68 Y11.387 E7.51976
G1 X-11.387 Y38.68 E40.58072
G1 X-18.54 Y38.68 E7.51976
G1 X-38.68 Y18.54 E29.94618
G1 X-38.68 Y25.692 E7.51976
G1 X-25.692 Y38.68 E19.31164
G1 X-32.845 Y38.68 E7.51976
G1 X-40.882 Y30.643 E11.95067
; stop printing object Cube id:0 copy 0
M106 S255
;LAYER_CHANGE
;Z:1
;HEIGHT:0.5
;BEFORE_LAYER_CHANGE
;1
G92 E0

G1 E-.56 F1800
;WIPE_START
G1 F3000
G1 X-40.175 Y31.35 E-.24
;WIPE_END
;_SET_FAN_SPEED_CHANGING_LAYER
; printing object Cube id:0 copy 0
G1 X42.5 Y42.5 Z1
G1 E.8 F2400
;TYPE:Inner wall
;WIDTH:5
G1 F3000
G1 X-42.5 Y42.5 E86.45129
G1 X-42.5 Y-42.5 E86.45129
G1 X42.5 Y-42.5 E86.45129
G1 X42.5 Y42.4 E86.34958
G1 E-.56 F1800
;WIPE_START
G1 F3000
G1 X41.5 Y42.401 E-.24
;WIPE_END
G1 X47.5 Y47.5
G1 E.8 F2400
;TYPE:Outer wall
G1 F3000
G1 X-47.5 Y47.5 E96.62203
G1 X-47.5 Y-47.5 E96.62203
G1 X47.5 Y-47.5 E96.62203
G1 X47.5 Y47.4 E96.52032
G1 E-.56 F1800
;WIPE_START
G1 F3000
G1 X46.5 Y47.401 E-.24
;WIPE_END
G1 X30.569 Y40.543
G1 E.8 F2400
;TYPE:Internal solid infill
;WIDTH:5.03979
G1 F3000
G1 X38.341 Y32.77 E11.27056
G1 X38.341 Y25.795 E7.1524
G1 X25.795 Y38.341 E18.19297
G1 X18.819 Y38.341 E7.1524
G1 X38.341 Y18.819 E28.30799
G1 X38.341 Y11.844 E7.1524
G1 X11.844 Y38.341 E38.42302
G1 X4.868 Y38.341 E7.1524
G1 X38.341 Y4.868 E48.53805
G1 X38.341 Y-2.108 E7.1524
G1 X-2.108 Y38.341 E58.65307
G1 X-9.083 Y38.341 E7.1524
G1 X38.341 Y-9.083 E68.7681
G1 X38.341 Y-16.059 E7.1524
G1 X-16.059 Y38.341 E78.88312
G1 X-23.034 Y38.341 E7.1524
G1 X38.341 Y-23.034 E88.99815
G1 X38.341 Y-30.01 E7.1524
G1 X-30.01 Y38.341 E99.11317
G1 X-36.986 Y38.341 E7.1524
G1 X38.341 Y-36.986 E109.2282
G1 X38.341 Y-38.341 E1.39003
G1 X32.721 Y-38.341 E5.76237
G1 X-38.341 Y32.721 E103.04474
G1 X-38.341 Y25.746 E7.1524
G1 X25.746 Y-38.341 E92.92971
G1 X18.77 Y-38.341 E7.1524
G1 X-38.341 Y18.77 E82.81469
G1 X-38.341 Y11.794 E7.1524
G1 X11.794 Y-38.341 E72.69966
G1 X4.819 Y-38.341 E7.1524
G1 X-38.341 Y4.819 E62.58463
G1 X-38.341 Y-2.157 E7.1524
G1 X-2.157 Y-38.341 E52.46961
G1 X-9.132 Y-38.341 E7.1524
G1 X-38.341 Y-9.132 E42.35458
G1 X-38.341 Y-16.108 E7.1524
G1 X-16.108 Y-38.341 E32.23956
G1 X-23.084 Y-38.341 E7.1524
G1 X-38.341 Y-23.084 E22.12453
G1 X-38.341 Y-30.059 E7.1524
G1 X-27.857 Y-40.543 E15.20212
G1 X-34.293 Y-38.749
;WIDTH:2.71732
G1 X-38.749 Y-38.749 E2.41743
G1 X-38.749 Y-34.293 E2.41743
G1 X-34.364 Y-38.678 E3.3645
; stop printing object Cube id:0 copy 0
;LAYER_CHANGE
;Z:1.5
;HEIGHT:0.5
;BEFORE_LAYER_CHANGE
;1.5
G92 E0

G1 E-.56 F1800
;WIPE_START
G1 F3000
G1 X-35.071 Y-37.971 E-.24
;WIPE_END
;_SET_FAN_SPEED_CHANGING_LAYER
; printing object Cube id:0 copy 0
G1 X42.5 Y42.5 Z1.5
G1 E.8 F2400
M73 P2 R84
;TYPE:Inner wall
;WIDTH:5
G1 F3000
G1 X-42.5 Y42.5 E86.45129
G1 X-42.5 Y-42.5 E86.45129
G1 X42.5 Y-42.5 E86.45129
G1 X42.5 Y42.4 E86.34958
G1 E-.56 F1800
M73 P2 R83
;WIPE_START
G1 F3000
G1 X41.5 Y42.401 E-.24
;WIPE_END
G1 X47.5 Y47.5
G1 E.8 F2400
;TYPE:Outer wall
G1 F3000
G1 X-47.5 Y47.5 E96.62203
G1 X-47.5 Y-47.5 E96.62203
G1 X47.5 Y-47.5 E96.62203
G1 X47.5 Y47.4 E96.52032
G1 E-.56 F1800
;WIPE_START
G1 F3000
G1 X46.5 Y47.401 E-.24
;WIPE_END
G1 X40.543 Y-30.569
G1 E.8 F2400
;TYPE:Internal solid infill
;WIDTH:5.03979
G1 F3000
G1 X32.77 Y-38.341 E11.27056
G1 X25.795 Y-38.341 E7.1524
G1 X38.341 Y-25.795 E18.19297
G1 X38.341 Y-18.819 E7.1524
G1 X18.819 Y-38.341 E28.308
G1 X11.844 Y-38.341 E7.1524
G1 X38.341 Y-11.844 E38.42302
G1 X38.341 Y-4.868 E7.1524
G1 X4.868 Y-38.341 E48.53805
G1 X-2.108 Y-38.341 E7.1524
G1 X38.341 Y2.108 E58.65307
G1 X38.341 Y9.083 E7.1524
G1 X-9.083 Y-38.341 E68.7681
G1 X-16.059 Y-38.341 E7.1524
G1 X38.341 Y16.059 E78.88313
G1 X38.341 Y23.034 E7.1524
G1 X-23.034 Y-38.341 E88.99815
G1 X-30.01 Y-38.341 E7.1524
G1 X38.341 Y30.01 E99.11318
G1 X38.341 Y36.986 E7.1524
G1 X-36.986 Y-38.341 E109.2282
G1 X-38.341 Y-38.341 E1.39002
G1 X-38.341 Y-32.721 E5.76239
G1 X32.721 Y38.341 E103.04474
G1 X25.746 Y38.341 E7.1524
G1 X-38.341 Y-25.746 E92.92971
G1 X-38.341 Y-18.77 E7.1524
G1 X18.77 Y38.341 E82.81468
G1 X11.794 Y38.341 E7.1524
G1 X-38.341 Y-11.794 E72.69966
G1 X-38.341 Y-4.819 E7.1524
G1 X4.819 Y38.341 E62.58463
G1 X-2.157 Y38.341 E7.1524
G1 X-38.341 Y2.157 E52.46961
G1 X-38.341 Y9.132 E7.1524
G1 X-9.132 Y38.341 E42.35458
G1 X-16.108 Y38.341 E7.1524
G1 X-38.341 Y16.108 E32.23955
G1 X-38.341 Y23.084 E7.1524
G1 X-23.084 Y38.341 E22.12453
G1 X-30.059 Y38.341 E7.1524
G1 X-40.543 Y27.857 E15.20212
G1 X-38.749 Y34.293
;WIDTH:2.71732
G1 X-38.749 Y38.749 E2.41743
G1 X-34.293 Y38.749 E2.41743
G1 X-38.678 Y34.364 E3.3645
; stop printing object Cube id:0 copy 0
;LAYER_CHANGE
;Z:2
;HEIGHT:0.5
;BEFORE_LAYER_CHANGE
;2
G92 E0

G1 E-.56 F1800
;WIPE_START
G1 F3000
G1 X-37.971 Y35.071 E-.24
;WIPE_END
;_SET_FAN_SPEED_CHANGING_LAYER
; printing object Cube id:0 copy 0
G1 X42.5 Y42.5 Z2
G1 E.8 F2400
;TYPE:Inner wall
;WIDTH:5
G1 F3000
G1 X-42.5 Y42.5 E86.45129
G1 X-42.5 Y-42.5 E86.45129
G1 X42.5 Y-42.5 E86.45129
M73 P3 R83
G1 X42.5 Y42.4 E86.34958
G1 E-.56 F1800
;WIPE_START
G1 F3000
G1 X41.5 Y42.401 E-.24
;WIPE_END
G1 X47.5 Y47.5
G1 E.8 F2400
;TYPE:Outer wall
G1 F3000
G1 X-47.5 Y47.5 E96.62203
G1 X-47.5 Y-47.5 E96.62203
G1 X47.5 Y-47.5 E96.62203
G1 X47.5 Y47.4 E96.52032
G1 E-.56 F1800
;WIPE_START
G1 F3000
G1 X46.5 Y47.401 E-.24
;WIPE_END
G1 X5.586 Y40.543
G1 E.8 F2400
;TYPE:Sparse infill
G1 F3000
G1 X38.341 Y7.788 E47.11394
G1 X38.341 Y-38.341 E46.9164
G1 X-38.341 Y38.341 E110.29688
G1 X-38.341 Y-7.788 E46.9164
M73 P3 R82
G1 X-5.586 Y-40.543 E47.11392
; stop printing object Cube id:0 copy 0
;LAYER_CHANGE
;Z:2.5
;HEIGHT:0.5
;BEFORE_LAYER_CHANGE
;2.5
G92 E0

G1 E-.56 F1800
;WIPE_START
G1 F3000
G1 X-6.293 Y-39.836 E-.24
;WIPE_END
;_SET_FAN_SPEED_CHANGING_LAYER
; printing object Cube id:0 copy 0
G1 X42.5 Y42.5 Z2.5
G1 E.8 F2400
;TYPE:Inner wall
G1 F3000
G1 X-42.5 Y42.5 E86.45129
G1 X-42.5 Y-42.5 E86.45129
G1 X42.5 Y-42.5 E86.45129
G1 X42.5 Y42.4 E86.34958
G1 E-.56 F1800
;WIPE_START
G1 F3000
G1 X41.5 Y42.401 E-.24
;WIPE_END
G1 X47.5 Y47.5
G1 E.8 F2400
;TYPE:Outer wall
G1 F3000
G1 X-47.5 Y47.5 E96.62203
G1 X-47.5 Y-47.5 E96.62203
G1 X47.5 Y-47.5 E96.62203
G1 X47.5 Y47.4 E96.52032
G1 E-.56 F1800
;WIPE_START
G1 F3000
G1 X46.5 Y47.401 E-.24
;WIPE_END
G1 X40.543 Y-5.586
G1 E.8 F2400
;TYPE:Sparse infill
G1 F3000
G1 X7.788 Y-38.341 E47.11394
G1 X-38.341 Y-38.341 E46.91641
G1 X38.341 Y38.341 E110.2969
G1 X-7.788 Y38.341 E46.91641
G1 X-40.543 Y5.586 E47.11393
; stop printing object Cube id:0 copy 0
;LAYER_CHANGE
;Z:3
;HEIGHT:0.5
;BEFORE_LAYER_CHANGE
;3
G92 E0

G1 E-.56 F1800
;WIPE_START
G1 F3000
G1 X-39.836 Y6.293 E-.24
;WIPE_END
;_SET_FAN_SPEED_CHANGING_LAYER
; printing object Cube id:0 copy 0
G1 X42.5 Y42.5 Z3
G1 E.8 F2400
;TYPE:Inner wall
G1 F3000
G1 X-42.5 Y42.5 E86.45129
G1 X-42.5 Y-42.5 E86.45129
G1 X42.5 Y-42.5 E86.45129
G1 X42.5 Y42.4 E86.34958
G1 E-.56 F1800
M73 P4 R82
;WIPE_START
G1 F3000
G1 X41.5 Y42.401 E-.24
;WIPE_END
G1 X47.5 Y47.5
G1 E.8 F2400
;TYPE:Outer wall
G1 F3000
G1 X-47.5 Y47.5 E96.62203
G1 X-47.5 Y-47.5 E96.62203
G1 X47.5 Y-47.5 E96.62203
G1 X47.5 Y47.4 E96.52032
G1 E-.56 F1800
;WIPE_START
G1 F3000
G1 X46.5 Y47.401 E-.24
;WIPE_END
G1 X5.586 Y40.543
G1 E.8 F2400
;TYPE:Sparse infill
G1 F3000
G1 X38.341 Y7.788 E47.11394
G1 X38.341 Y-38.341 E46.9164
G1 X-38.341 Y38.341 E110.29688
G1 X-38.341 Y-7.788 E46.9164
G1 X-5.586 Y-40.543 E47.11392
; stop printing object Cube id:0 copy 0
;LAYER_CHANGE
;Z:3.5
;HEIGHT:0.5
;BEFORE_LAYER_CHANGE
;3.5
G92 E0

G1 E-.56 F1800
;WIPE_START
G1 F3000
G1 X-6.293 Y-39.836 E-.24
;WIPE_END
;_SET_FAN_SPEED_CHANGING_LAYER
; printing object Cube id:0 copy 0
G1 X42.5 Y42.5 Z3.5
G1 E.8 F2400
;TYPE:Inner wall
G1 F3000
G1 X-42.5 Y42.5 E86.45129
G1 X-42.5 Y-42.5 E86.45129
G1 X42.5 Y-42.5 E86.45129
G1 X42.5 Y42.4 E86.34958
G1 E-.56 F1800
M73 P4 R81
;WIPE_START
G1 F3000
G1 X41.5 Y42.401 E-.24
;WIPE_END
G1 X47.5 Y47.5
G1 E.8 F2400
;TYPE:Outer wall
G1 F3000
G1 X-47.5 Y47.5 E96.62203
G1 X-47.5 Y-47.5 E96.62203
G1 X47.5 Y-47.5 E96.62203
G1 X47.5 Y47.4 E96.52032
G1 E-.56 F1800
;WIPE_START
G1 F3000
G1 X46.5 Y47.401 E-.24
;WIPE_END
G1 X40.543 Y-5.586
G1 E.8 F2400
;TYPE:Sparse infill
G1 F3000
G1 X7.788 Y-38.341 E47.11394
G1 X-38.341 Y-38.341 E46.91641
G1 X38.341 Y38.341 E110.2969
G1 X-7.788 Y38.341 E46.91641
G1 X-40.543 Y5.586 E47.11393
; stop printing object Cube id:0 copy 0
;LAYER_CHANGE
;Z:4
;HEIGHT:0.5
;BEFORE_LAYER_CHANGE
;4
G92 E0

G1 E-.56 F1800
;WIPE_START
G1 F3000
G1 X-39.836 Y6.293 E-.24
;WIPE_END
;_SET_FAN_SPEED_CHANGING_LAYER
; printing object Cube id:0 copy 0
G1 X42.5 Y42.5 Z4
G1 E.8 F2400
;TYPE:Inner wall
G1 F3000
G1 X-42.5 Y42.5 E86.45129
G1 X-42.5 Y-42.5 E86.45129
G1 X42.5 Y-42.5 E86.45129
G1 X42.5 Y42.4 E86.34958
G1 E-.56 F1800
;WIPE_START
G1 F3000
G1 X41.5 Y42.401 E-.24
;WIPE_END
G1 X47.5 Y47.5
G1 E.8 F2400
;TYPE:Outer wall
G1 F3000
G1 X-47.5 Y47.5 E96.62203
G1 X-47.5 Y-47.5 E96.62203
M73 P5 R81
G1 X47.5 Y-47.5 E96.62203
G1 X47.5 Y47.4 E96.52032
G1 E-.56 F1800
;WIPE_START
G1 F3000
G1 X46.5 Y47.401 E-.24
;WIPE_END
G1 X5.586 Y40.543
G1 E.8 F2400
;TYPE:Sparse infill
G1 F3000
G1 X38.341 Y7.788 E47.11394
G1 X38.341 Y-38.341 E46.9164
G1 X-38.341 Y38.341 E110.29688
G1 X-38.341 Y-7.788 E46.9164
G1 X-5.586 Y-40.543 E47.11392
; stop printing object Cube id:0 copy 0
;LAYER_CHANGE
;Z:4.5
;HEIGHT:0.5
;BEFORE_LAYER_CHANGE
;4.5
G92 E0

G1 E-.56 F1800
;WIPE_START
G1 F3000
G1 X-6.293 Y-39.836 E-.24
;WIPE_END
;_SET_FAN_SPEED_CHANGING_LAYER
; printing object Cube id:0 copy 0
G1 X42.5 Y42.5 Z4.5
G1 E.8 F2400
;TYPE:Inner wall
G1 F3000
G1 X-42.5 Y42.5 E86.45129
G1 X-42.5 Y-42.5 E86.45129
G1 X42.5 Y-42.5 E86.45129
G1 X42.5 Y42.4 E86.34958
G1 E-.56 F1800
;WIPE_START
G1 F3000
G1 X41.5 Y42.401 E-.24
;WIPE_END
G1 X47.5 Y47.5
G1 E.8 F2400
;TYPE:Outer wall
G1 F3000
G1 X-47.5 Y47.5 E96.62203
G1 X-47.5 Y-47.5 E96.62203
G1 X47.5 Y-47.5 E96.62203
G1 X47.5 Y47.4 E96.52032
G1 E-.56 F1800
;WIPE_START
G1 F3000
G1 X46.5 Y47.401 E-.24
;WIPE_END
G1 X40.543 Y-5.586
G1 E.8 F2400
;TYPE:Sparse infill
G1 F3000
G1 X7.788 Y-38.341 E47.11394
G1 X-38.341 Y-38.341 E46.91641
G1 X38.341 Y38.341 E110.2969
M73 P5 R80
G1 X-7.788 Y38.341 E46.91641
G1 X-40.543 Y5.586 E47.11393
; stop printing object Cube id:0 copy 0
;LAYER_CHANGE
;Z:5
;HEIGHT:0.5
;BEFORE_LAYER_CHANGE
;5
G92 E0

G1 E-.56 F1800
;WIPE_START
G1 F3000
G1 X-39.836 Y6.293 E-.24
;WIPE_END
;_SET_FAN_SPEED_CHANGING_LAYER
; printing object Cube id:0 copy 0
G1 X42.5 Y42.5 Z5
G1 E.8 F2400
;TYPE:Inner wall
G1 F3000
G1 X-42.5 Y42.5 E86.45129
G1 X-42.5 Y-42.5 E86.45129
G1 X42.5 Y-42.5 E86.45129
G1 X42.5 Y42.4 E86.34958
G1 E-.56 F1800
;WIPE_START
G1 F3000
G1 X41.5 Y42.401 E-.24
;WIPE_END
G1 X47.5 Y47.5
G1 E.8 F2400
;TYPE:Outer wall
G1 F3000
G1 X-47.5 Y47.5 E96.62203
G1 X-47.5 Y-47.5 E96.62203
G1 X47.5 Y-47.5 E96.62203
G1 X47.5 Y47.4 E96.52032
M73 P6 R80
G1 E-.56 F1800
;WIPE_START
G1 F3000
G1 X46.5 Y47.401 E-.24
;WIPE_END
G1 X5.586 Y40.543
G1 E.8 F2400
;TYPE:Sparse infill
G1 F3000
G1 X38.341 Y7.788 E47.11394
G1 X38.341 Y-38.341 E46.9164
G1 X-38.341 Y38.341 E110.29688
G1 X-38.341 Y-7.788 E46.9164
G1 X-5.586 Y-40.543 E47.11392
; stop printing object Cube id:0 copy 0
;LAYER_CHANGE
;Z:5.5
;HEIGHT:0.5
;BEFORE_LAYER_CHANGE
;5.5
G92 E0

G1 E-.56 F1800
;WIPE_START
G1 F3000
G1 X-6.293 Y-39.836 E-.24
;WIPE_END
;_SET_FAN_SPEED_CHANGING_LAYER
; printing object Cube id:0 copy 0
G1 X42.5 Y42.5 Z5.5
G1 E.8 F2400
;TYPE:Inner wall
G1 F3000
G1 X-42.5 Y42.5 E86.45129
G1 X-42.5 Y-42.5 E86.45129
G1 X42.5 Y-42.5 E86.45129
G1 X42.5 Y42.4 E86.34958
G1 E-.56 F1800
;WIPE_START
G1 F3000
G1 X41.5 Y42.401 E-.24
;WIPE_END
G1 X47.5 Y47.5
G1 E.8 F2400
;TYPE:Outer wall
G1 F3000
G1 X-47.5 Y47.5 E96.62203
G1 X-47.5 Y-47.5 E96.62203
G1 X47.5 Y-47.5 E96.62203
G1 X47.5 Y47.4 E96.52032
G1 E-.56 F1800
;WIPE_START
G1 F3000
G1 X46.5 Y47.401 E-.24
;WIPE_END
G1 X40.543 Y-5.586
G1 E.8 F2400
;TYPE:Sparse infill
G1 F3000
G1 X7.788 Y-38.341 E47.11394
G1 X-38.341 Y-38.341 E46.91641
G1 X38.341 Y38.341 E110.2969
G1 X-7.788 Y38.341 E46.91641
G1 X-40.543 Y5.586 E47.11393
; stop printing object Cube id:0 copy 0
;LAYER_CHANGE
;Z:6
;HEIGHT:0.5
;BEFORE_LAYER_CHANGE
;6
G92 E0

G1 E-.56 F1800
;WIPE_START
G1 F3000
G1 X-39.836 Y6.293 E-.24
;WIPE_END
;_SET_FAN_SPEED_CHANGING_LAYER
; printing object Cube id:0 copy 0
G1 X42.5 Y42.5 Z6
G1 E.8 F2400
;TYPE:Inner wall
G1 F3000
G1 X-42.5 Y42.5 E86.45129
G1 X-42.5 Y-42.5 E86.45129
G1 X42.5 Y-42.5 E86.45129
G1 X42.5 Y42.4 E86.34958
M73 P6 R79
G1 E-.56 F1800
;WIPE_START
G1 F3000
G1 X41.5 Y42.401 E-.24
;WIPE_END
G1 X47.5 Y47.5
G1 E.8 F2400
;TYPE:Outer wall
G1 F3000
G1 X-47.5 Y47.5 E96.62203
G1 X-47.5 Y-47.5 E96.62203
G1 X47.5 Y-47.5 E96.62203
G1 X47.5 Y47.4 E96.52032
G1 E-.56 F1800
M73 P7 R79
;WIPE_START
G1 F3000
G1 X46.5 Y47.401 E-.24
;WIPE_END
G1 X5.586 Y40.543
G1 E.8 F2400
;TYPE:Sparse infill
G1 F3000
G1 X38.341 Y7.788 E47.11394
G1 X38.341 Y-38.341 E46.9164
G1 X-38.341 Y38.341 E110.29688
G1 X-38.341 Y-7.788 E46.9164
G1 X-5.586 Y-40.543 E47.11392
; stop printing object Cube id:0 copy 0
;LAYER_CHANGE
;Z:6.5
;HEIGHT:0.5
;BEFORE_LAYER_CHANGE
;6.5
G92 E0

G1 E-.56 F1800
;WIPE_START
G1 F3000
